images/insert.svg

<?xml version="1.0" encoding="UTF-8" standalone="no" ?>
<!DOCTYPE svg PUBLIC "-//W3C//DTD SVG 1.1//EN" "http://www.w3.org/Graphics/SVG/1.1/DTD/svg11.dtd">
<svg xmlns="http://www.w3.org/2000/svg" xmlns:xlink="http://www.w3.org/1999/xlink" version="1.1" width="1080" height="1080" viewBox="0 0 1080 1080" xml:space="preserve">
<desc>Created with Fabric.js 5.2.4</desc>
<defs>
</defs>
<g transform="matrix(1 0 0 1 540 540)" id="9a51e63b-4973-4899-bf22-d1c86fdf3545"  >
<rect style="stroke: none; stroke-width: 1; stroke-dasharray: none; stroke-linecap: butt; stroke-dashoffset: 0; stroke-linejoin: miter; stroke-miterlimit: 4; fill: rgb(255,255,255); fill-rule: nonzero; opacity: 1; visibility: hidden;" vector-effect="non-scaling-stroke"  x="-540" y="-540" rx="0" ry="0" width="1080" height="1080" />
</g>
<g transform="matrix(1 0 0 1 540 540)" id="74deaff1-44ee-4ef4-a4c6-3d9662538cc8"  >
</g>
<g transform="matrix(36 0 0 36 540 540)"  >
<g style=""   >
		<g transform="matrix(1 0 0 1 3 -3)"  >
<path style="stroke: none; stroke-width: 1; stroke-dasharray: none; stroke-linecap: butt; stroke-dashoffset: 0; stroke-linejoin: miter; stroke-miterlimit: 4; fill: rgb(0,0,0); fill-rule: evenodd; opacity: 1;" vector-effect="non-scaling-stroke"  transform=" translate(-18, -12)" d="M 9 3.5 L 9 20.5 C 9 20.7761423749154 9.223857625084603 21 9.5 21 L 26.5 21 C 26.7761423749154 21 27 20.7761423749154 27 20.5 L 27 3.5 C 27 3.2238576250846034 26.7761423749154 3 26.5 3 L 9.5 3 C 9.223857625084603 3 9 3.2238576250846034 9 3.5 z M 10 4 L 26 4 L 26 20 L 10 20 L 10 4 z M 24 11.5 C 24 11.776142374915397 24.2238576250846 12 24.5 12 C 24.7761423749154 12 25 11.776142374915397 25 11.5 L 25 5.5 C 25 5.223857625084603 24.7761423749154 5 24.5 5 L 18.5 5 C 18.2238576250846 5 18 5.223857625084603 18 5.5 C 18 5.776142374915397 18.2238576250846 6 18.5 6 L 23.293 6 L 14.145999999999999 15.146 C 13.950491198559899 15.341508801440101 13.950491198559899 15.6584911985599 14.145999999999999 15.854000000000001 C 14.3415088014401 16.0495088014401 14.658491198559899 16.0495088014401 14.854 15.854000000000001 L 24 6.707 L 24 11.5 z" stroke-linecap="round" />
</g>
		<g transform="matrix(1 0 0 1 -3 3)"  >
<path style="stroke: none; stroke-width: 1; stroke-dasharray: none; stroke-linecap: butt; stroke-dashoffset: 0; stroke-linejoin: miter; stroke-miterlimit: 4; fill: rgb(0,0,0); fill-rule: evenodd; opacity: 1;" vector-effect="non-scaling-stroke"  transform=" translate(-12, -18)" d="M 21 26.5 C 21 26.7761423749154 20.7761423749154 27 20.5 27 L 3.5 27 C 3.2238576250846034 27 3 26.7761423749154 3 26.5 L 3 9.5 C 3 9.223857625084603 3.2238576250846034 9 3.5 9 L 10 9 L 10 10 L 4 10 L 4 26 L 20 26 L 20 20 L 21 20 L 21 26.5 z" stroke-linecap="round" />
</g>
</g>
</g>
</svg>

<svg xmlns="http://www.w3.org/2000/svg" viewBox="0 0 30 30"><g fill-rule="evenodd"><path fill="#ffffff" d="M9 3.5v17a.5.5 0 0 0 .5.5h17a.5.5 0 0 0 .5-.5v-17a.5.5 0 0 0-.5-.5h-17a.5.5 0 0 0-.5.5zm1 .5h16v16H10V4zm14 7.5a.5.5 0 1 0 1 0v-6a.5.5 0 0 0-.5-.5h-6a.5.5 0 1 0 0 1h4.793l-9.147 9.146a.5.5 0 0 0 .708.708L24 6.707V11.5z"/><path d="M21 26.5a.5.5 0 0 1-.5.5h-17a.5.5 0 0 1-.5-.5v-17a.5.5 0 0 1 .5-.5H10v1H4v16h16v-6h1v6.5z"/></g></svg>
